!!!OTL: Horch auf, Kamerad, die Trommel ruft, und die Fahne weht dort im Winde
!!!ARE: Europa, Mitteleuropa, Deutschland, Brandenburg, Berlin
!!!SCT: D0196
!!!YEM: Copyright 1995, estate of Helmut Schaffrath.
**kern
*ICvox
*Ivox
*M4/4
*k[f#]
*G:
{4d
=1
4g
8g
8g
4g
4b
=2
8b
8a
8a
8f#
4g
8g
8g
=3
4cc
8cc
8cc
4cc
4cc
=4
4b
4g
4r}
{4d
=5
4g
8g
8g
4g
4b
=6
8b
8a
8a
8f#
4g
8g
8g
=7
4cc
8cc
8cc
4cc
4cc
=8
4b
4g
4r}
{8g
8g
=9
4ee
4ee
4ee
8ee
8ee
=10
4ee
8dd
8cc
4.dd
8dd
=11
4cc
8cc
8cc
4cc
8dd
8ee
=12
4dd
4b
4r}
{8g
8g
=13
4ee
4ee
4ee
8ee
8ee
=14
4ee
8dd
8cc
4.dd
8dd
=15
4cc
8cc
8cc
4cc
8dd
8ee
=16
4dd
4b
4r}
{4d
=17
4g
8g
8g
4g
4b
=18
8b
8a
8a
8f#
4g
8g
8g
=19
4cc
8cc
8cc
4ee
4cc
=20
4b
4g
4r}
{4d
=21
4g
8g
8g
4g
4b
=22
8b
8a
8a
8f#
4g
8g
8g
=23
4cc
8cc
8cc
4cc
4cc
=24
4b
4g
4r}
==
!!!AGN: nationalsozialistisches Lied, Soldaten - Lied
!!!ONB: ESAC (Essen Associative Code) Database: DVA
!!!AMT: simple quadruple
!!!AIN: vox
!!!EED: Helmut Schaffrath
!!!EEV: 1.0
*-
